Source/img/icon-vkontakte.svg

<?xml version="1.0"?>
<svg xmlns="http://www.w3.org/2000/svg" xmlns:xlink="http://www.w3.org/1999/xlink" version="1.1" viewBox="0 0 224 224" width="512px" height="512px"><g fill="none" fill-rule="nonzero" stroke="none" stroke-width="1" stroke-linecap="butt" stroke-linejoin="miter" stroke-miterlimit="10" stroke-dasharray="" stroke-dashoffset="0" font-family="none" font-weight="none" font-size="none" text-anchor="none" style="mix-blend-mode: normal"><path d="M0,224v-224h224v224z" fill="none"/><g fill="#0078b3"><g id="surface1"><path d="M63.57422,35c-15.69531,0 -28.57422,12.87891 -28.57422,28.57422v96.85157c0,15.69531 12.87891,28.57422 28.57422,28.57422h96.85157c15.69531,0 28.57422,-12.87891 28.57422,-28.57422v-96.85157c0,-15.69531 -12.87891,-28.57422 -28.57422,-28.57422zM63.57422,49h96.85157c8.12109,0 14.57422,6.45313 14.57422,14.57422v96.85157c0,8.12109 -6.45312,14.57422 -14.57422,14.57422h-96.85157c-8.12109,0 -14.57422,-6.45312 -14.57422,-14.57422v-96.85157c0,-8.12109 6.45313,-14.57422 14.57422,-14.57422zM110.03125,85.61328c-5.14062,-0.05469 -9.51562,0 -11.97656,1.20313c-1.64062,0.79297 -2.89844,2.59766 -2.13282,2.67968c0.95703,0.13672 3.11719,0.60157 4.26563,2.16016c1.47657,1.99609 1.42188,6.50782 1.42188,6.50782c0,0 0.82032,12.41406 -1.99609,13.97265c-1.94141,1.06641 -4.59375,-1.09375 -10.33594,-10.96484c-2.92578,-5.08593 -5.14062,-10.69141 -5.14062,-10.69141c0,0 -0.41015,-1.03906 -1.17578,-1.58593c-0.92969,-0.68359 -2.21485,-0.90234 -2.21485,-0.90234l-13.69922,0.08203c0,0 -2.05078,0.08203 -2.78906,0.95703c-0.6836,0.82032 -0.05469,2.43359 -0.05469,2.43359c0,0 10.71875,25.07422 22.85938,37.70703c11.12891,11.59375 23.76172,10.82813 23.76172,10.82813h5.74219c0,0 1.72266,-0.19141 2.59766,-1.12109c0.82031,-0.875 0.79297,-2.51562 0.79297,-2.51562c0,0 -0.10937,-7.68359 3.44531,-8.83203c3.52735,-1.09375 8.01172,7.4375 12.79688,10.71875c3.63672,2.48828 6.39844,1.94141 6.39844,1.94141l12.79688,-0.19141c0,0 6.67188,-0.41016 3.5,-5.6875c-0.24609,-0.41016 -1.83203,-3.88281 -9.48828,-10.99218c-8.03906,-7.4375 -6.97266,-6.23437 2.70703,-19.11328c5.87891,-7.84766 8.23047,-12.63282 7.49218,-14.71094c-0.71093,-1.9414 -5.03125,-1.42187 -5.03125,-1.42187l-14.41015,0.08203c0,0 -1.06641,-0.13672 -1.85937,0.32813c-0.76562,0.46484 -1.25782,1.55859 -1.25782,1.55859c0,0 -2.29687,6.07032 -5.33203,11.23828c-6.39843,10.88282 -8.99609,11.48438 -10.03515,10.80078c-2.4336,-1.58594 -1.83203,-6.34375 -1.83203,-9.70703c0,-10.58203 1.61328,-14.95703 -3.11719,-16.10547c-1.55859,-0.38282 -2.70703,-0.62891 -6.69922,-0.65625z"/></g></g></g></svg>

<svg xmlns="http://www.w3.org/2000/svg" viewBox="0 0 224 224" width="512" height="512"><g fill="none" stroke-miterlimit="10" font-family="none" font-weight="none" font-size="none" text-anchor="none" style="mix-blend-mode:normal"><path d="M0 224V0h224v224z"/><path d="M63.574 35C47.88 35 35 47.879 35 63.574v96.852C35 176.12 47.879 189 63.574 189h96.852C176.12 189 189 176.121 189 160.426V63.574C189 47.88 176.121 35 160.426 35zm0 14h96.852C168.546 49 175 55.453 175 63.574v96.852c0 8.12-6.453 14.574-14.574 14.574H63.574C55.454 175 49 168.547 49 160.426V63.574C49 55.454 55.453 49 63.574 49zm46.457 36.613c-5.14-.054-9.515 0-11.976 1.203-1.64.793-2.899 2.598-2.133 2.68.957.137 3.117.602 4.266 2.16 1.476 1.996 1.421 6.508 1.421 6.508s.82 12.414-1.996 13.973c-1.941 1.066-4.593-1.094-10.336-10.965-2.925-5.086-5.14-10.692-5.14-10.692s-.41-1.039-1.176-1.585c-.93-.684-2.215-.903-2.215-.903l-13.7.082s-2.05.082-2.788.957c-.684.82-.055 2.434-.055 2.434s10.719 25.074 22.86 37.707C98.19 140.766 110.824 140 110.824 140h5.742s1.723-.191 2.598-1.121c.82-.875.793-2.516.793-2.516s-.11-7.683 3.445-8.832c3.528-1.093 8.012 7.438 12.797 10.719 3.637 2.488 6.399 1.941 6.399 1.941l12.797-.191s6.671-.41 3.5-5.687c-.247-.41-1.832-3.883-9.489-10.993-8.039-7.437-6.972-6.234 2.707-19.113 5.88-7.848 8.23-12.633 7.492-14.71-.71-1.942-5.03-1.423-5.03-1.423l-14.41.082s-1.067-.136-1.86.328c-.766.465-1.258 1.559-1.258 1.559s-2.297 6.07-5.332 11.238c-6.399 10.883-8.996 11.485-10.035 10.801-2.434-1.586-1.832-6.344-1.832-9.707 0-10.582 1.613-14.957-3.118-16.105-1.558-.383-2.707-.63-6.699-.657z" fill="#0078b3"/></g></svg>
